images_breeze_svg/cmd/32/datasort.svg

<svg viewBox="0 0 32 32" xmlns="http://www.w3.org/2000/svg"><path d="m21.5 6-1 1-4 4 .707031.707031 3.792969-3.7929685v14.0859375h1v-14.0859375l3.792969 3.7929685.707031-.707031-4-4zm-11.5 4v14.085938l-3.7929688-3.792969-.7070312.707031 4 4 1 1 1-1 4-4-.707031-.707031-3.792969 3.792969v-14.085938z" fill="#4d4d4d"/></svg>

<?xml version="1.0" encoding="UTF-8" standalone="no"?>
<svg
   xmlns:dc="http://purl.org/dc/elements/1.1/"
   xmlns:cc="http://creativecommons.org/ns#"
   xmlns:rdf="http://www.w3.org/1999/02/22-rdf-syntax-ns#"
   xmlns:svg="http://www.w3.org/2000/svg"
   xmlns="http://www.w3.org/2000/svg"
   xmlns:sodipodi="http://sodipodi.sourceforge.net/DTD/sodipodi-0.dtd"
   xmlns:inkscape="http://www.inkscape.org/namespaces/inkscape"
   viewBox="0 0 32 32"
   version="1.1"
   id="svg4"
   sodipodi:docname="datasort.svg"
   inkscape:version="0.92.4 (unknown)"
   inkscape:export-filename="/home/rizmut/Dokumen/Rizmut/Github/tmp/breeze/cmd/32/datasort.png"
   inkscape:export-xdpi="96"
   inkscape:export-ydpi="96">
  <metadata
     id="metadata10">
    <rdf:RDF>
      <cc:Work
         rdf:about="">
        <dc:format>image/svg+xml</dc:format>
        <dc:type
           rdf:resource="http://purl.org/dc/dcmitype/StillImage" />
      </cc:Work>
    </rdf:RDF>
  </metadata>
  <defs
     id="defs8" />
  <sodipodi:namedview
     pagecolor="#ffffff"
     bordercolor="#666666"
     borderopacity="1"
     objecttolerance="10"
     gridtolerance="10"
     guidetolerance="10"
     inkscape:pageopacity="0"
     inkscape:pageshadow="2"
     inkscape:window-width="1360"
     inkscape:window-height="714"
     id="namedview6"
     showgrid="true"
     inkscape:zoom="10.429825"
     inkscape:cx="-0.049714472"
     inkscape:cy="19.090088"
     inkscape:window-x="0"
     inkscape:window-y="28"
     inkscape:window-maximized="1"
     inkscape:current-layer="svg4">
    <inkscape:grid
       type="xygrid"
       id="grid817" />
  </sodipodi:namedview>
  <path
     d="m 21.5,6 -1,1 -4,4 0.707031,0.707031 L 21,7.9140625 V 22 h 1 V 7.9140625 L 25.792969,11.707031 26.5,11 22.5,7 Z M 10,10 V 24.085938 L 6.2070312,20.292969 5.5,21 l 4,4 1,1 1,-1 4,-4 L 14.792969,20.292969 11,24.085938 V 10 Z"
     id="path2"
     inkscape:connector-curvature="0"
     style="fill:#4d4d4d"
     sodipodi:nodetypes="cccccccccccccccccccccccc" />
</svg>
